icon-themes/breeze_svg/cmd/sc_deletecolumns.svg

<svg viewBox="0 0 16 16" xmlns="http://www.w3.org/2000/svg"><path d="m2 2v12h1 2 6 3v-1-11h-1-2-6-2zm1 1h2 6 2v3h-2v1h2v2h-2v1h2v3h-2-6-2v-3h2v-1h-2v-2h2v-1h-2z" fill="#4d4d4d"/><path d="m5 3v10h1.71875l3.28125-3.28125v3.28125h1v-4.28125-4-1.71875h-1v1.28125l-4 4v-2.5625l2.71875-2.71875h-1.4375l-1.28125 1.28125v-1.28125zm5 2.71875v2.5625l-4 4v-2.5625z" fill="#da4453"/></svg>

<svg xmlns="http://www.w3.org/2000/svg" viewBox="0 0 16 16">
 <path 
     style="fill:#4d4d4d" 
     d="M 2 2 L 2 14 L 3 14 L 5 14 L 11 14 L 14 14 L 14 13 L 14 2 L 13 2 L 11 2 L 5 2 L 3 2 L 2 2 z M 3 3 L 5 3 L 11 3 L 13 3 L 13 6 L 11 6 L 11 7 L 13 7 L 13 9 L 11 9 L 11 10 L 13 10 L 13 13 L 11 13 L 5 13 L 3 13 L 3 10 L 5 10 L 5 9 L 3 9 L 3 7 L 5 7 L 5 6 L 3 6 L 3 3 z "
     />
 <path 
     style="fill:#da4453" 
     d="M 5 3 L 5 13 L 6.71875 13 L 10 9.71875 L 10 13 L 11 13 L 11 8.71875 L 11 4.71875 L 11 3 L 10 3 L 10 4.28125 L 6 8.28125 L 6 5.71875 L 8.71875 3 L 7.28125 3 L 6 4.28125 L 6 3 L 5 3 z M 10 5.71875 L 10 8.28125 L 6 12.28125 L 6 9.71875 L 10 5.71875 z "
     />
 </svg>
